sourses/img/mir.svg

<svg width="48" height="48" viewBox="0 0 48 48" fill="none" xmlns="http://www.w3.org/2000/svg">
<g clip-path="url(#clip0)">
<path d="M41.6842 9.47363H6.3158C3.1765 9.47363 0.631592 12.0185 0.631592 15.1578V32.8421C0.631592 35.9814 3.1765 38.5263 6.3158 38.5263H41.6842C44.8235 38.5263 47.3684 35.9814 47.3684 32.8421V15.1578C47.3684 12.0185 44.8235 9.47363 41.6842 9.47363Z" fill="white"/>
<path d="M41.6842 10.1054C43.0243 10.1054 44.3094 10.6378 45.257 11.5853C46.2045 12.5329 46.7368 13.818 46.7368 15.1581V32.8423C46.7368 34.1823 46.2045 35.4675 45.257 36.415C44.3094 37.3626 43.0243 37.8949 41.6842 37.8949H6.31579C4.97575 37.8949 3.69059 37.3626 2.74304 36.415C1.79549 35.4675 1.26316 34.1823 1.26316 32.8423V15.1581C1.26316 13.818 1.79549 12.5329 2.74304 11.5853C3.69059 10.6378 4.97575 10.1054 6.31579 10.1054H41.6842ZM41.6842 8.84229H6.31579C4.64074 8.84229 3.03429 9.5077 1.84985 10.6921C0.665412 11.8766 0 13.483 0 15.1581L0 32.8423C0 34.5173 0.665412 36.1238 1.84985 37.3082C3.03429 38.4927 4.64074 39.1581 6.31579 39.1581H41.6842C43.3593 39.1581 44.9657 38.4927 46.1501 37.3082C47.3346 36.1238 48 34.5173 48 32.8423V15.1581C48 13.483 47.3346 11.8766 46.1501 10.6921C44.9657 9.5077 43.3593 8.84229 41.6842 8.84229Z" fill="#F7F7F7"/>
<g clip-path="url(#clip1)">
<path fill-rule="evenodd" clip-rule="evenodd" d="M34.8572 20H29.5429C29.8286 21.7714 31.5429 23.4286 33.4286 23.4286H37.6572C37.7143 23.2571 37.7143 23.0286 37.7143 22.8571C37.7143 21.2571 36.4572 20 34.8572 20Z" fill="url(#paint0_linear)"/>
<path fill-rule="evenodd" clip-rule="evenodd" d="M30 23.7144V28.0001H32.5714V25.7144H34.8571C36.1143 25.7144 37.2 24.8572 37.5429 23.7144H30Z" fill="#4DB45F"/>
<path fill-rule="evenodd" clip-rule="evenodd" d="M20.8571 20V28H23.1428C23.1428 28 23.7143 28 24 27.4286C25.5428 24.3429 26 23.4286 26 23.4286H26.2857V28H28.8571V20H26.5714C26.5714 20 26 20.0571 25.7143 20.5714C24.4 23.2 23.7143 24.5714 23.7143 24.5714H23.4285V20H20.8571Z" fill="#4DB45F"/>
<path fill-rule="evenodd" clip-rule="evenodd" d="M10 28V20H12.5714C12.5714 20 13.3143 20 13.7143 21.1429C14.7429 24.1714 14.8571 24.5714 14.8571 24.5714C14.8571 24.5714 15.0857 23.8286 16 21.1429C16.4 20 17.1429 20 17.1429 20H19.7143V28H17.1429V23.7143H16.8571L15.4286 28H14.2857L12.8571 23.7143H12.5714V28H10Z" fill="#4DB45F"/>
</g>
</g>
<defs>
<linearGradient id="paint0_linear" x1="29.5282" y1="21.7143" x2="37.7143" y2="21.7143" gradientUnits="userSpaceOnUse">
<stop stop-color="#00B4E6"/>
<stop offset="1" stop-color="#088CCB"/>
</linearGradient>
<clipPath id="clip0">
<rect width="48" height="48" fill="white"/>
</clipPath>
<clipPath id="clip1">
<rect x="10" y="20" width="28" height="8" fill="white"/>
</clipPath>
</defs>
</svg>

<svg width="48" height="48" fill="none" xmlns="http://www.w3.org/2000/svg"><g clip-path="url(#clip0)"><path d="M41.684 9.474H6.316a5.684 5.684 0 00-5.684 5.684v17.684a5.684 5.684 0 005.684 5.684h35.368a5.684 5.684 0 005.684-5.684V15.158a5.684 5.684 0 00-5.684-5.684z" fill="#fff"/><path d="M41.684 10.105a5.053 5.053 0 015.053 5.053v17.684a5.053 5.053 0 01-5.053 5.053H6.316a5.052 5.052 0 01-5.053-5.053V15.158a5.053 5.053 0 015.053-5.053h35.368zm0-1.263H6.316A6.316 6.316 0 000 15.158v17.684a6.316 6.316 0 006.316 6.316h35.368A6.315 6.315 0 0048 32.842V15.158a6.316 6.316 0 00-6.316-6.316z" fill="#F7F7F7"/><g clip-path="url(#clip1)" fill-rule="evenodd" clip-rule="evenodd"><path d="M34.857 20h-5.314c.286 1.771 2 3.429 3.886 3.429h4.228c.057-.172.057-.4.057-.572A2.83 2.83 0 0034.857 20z" fill="url(#paint0_linear)"/><path d="M30 23.714V28h2.571v-2.286h2.286a2.83 2.83 0 002.686-2H30zM20.857 20v8h2.286s.571 0 .857-.571l2-4h.286V28h2.571v-8h-2.286s-.571.057-.857.571l-2 4h-.285V20h-2.572zM10 28v-8h2.571s.743 0 1.143 1.143c1.029 3.028 1.143 3.428 1.143 3.428s.229-.742 1.143-3.428C16.4 20 17.143 20 17.143 20h2.571v8h-2.571v-4.286h-.286L15.43 28h-1.143l-1.429-4.286h-.286V28H10z" fill="#4DB45F"/></g></g><defs><clipPath id="clip0"><path fill="#fff" d="M0 0h48v48H0z"/></clipPath><clipPath id="clip1"><path fill="#fff" d="M10 20h28v8H10z"/></clipPath><linearGradient id="paint0_linear" x1="29.528" y1="21.714" x2="37.714" y2="21.714" gradientUnits="userSpaceOnUse"><stop stop-color="#00B4E6"/><stop offset="1" stop-color="#088CCB"/></linearGradient></defs></svg>
